X: 130
T: Batchelder's Reel
M: C|
Z: Mary Lou Knack?
R: reel
K: F
|: "F"f2 af "C7"ef ge | "F"f2 c2 c2 =Bc | "Bb"dc BA BA GF | "C7"EF GA Bc de |
|  "F"f2 af "C7"ef ge | "F"f2 c2 (3cdc =Bc | "Bb"dc BA BA GF | "C7"EF GE "F"F4 :|
|: "F"A2 cA cA cA | "Bb"B2 dB dB dB | "F"A2 cA cA cA | "C7"BA GF EF GB |
|  "F"A2 cA cA cA | "Bb"B2 dB dB dB | "F"Ac fa "C7"bg eg | "F"f2 a2 f2 c2 :|
